src/icons/containerdPush.svg

<?xml version="1.0" encoding="UTF-8"?>
<svg xmlns="http://www.w3.org/2000/svg" xmlns:xlink="http://www.w3.org/1999/xlink" width="32" height="32" viewBox="0 0 32 32" version="1.1">
<g id="surface1">
<path style=" stroke:none;fill-rule:nonzero;fill:rgb(20.392157%,59.607846%,85.882354%);fill-opacity:1;" d="M 17.5 3.5 C 17.773438 3.5 18 3.726562 18 4 L 18 11.5 L 21.5 11.5 C 21.773438 11.5 22 11.726562 22 12 L 22 15.5 L 22.046875 15.5 C 22.074219 15.5 23.09375 15.515625 23.882812 14.914062 C 23.390625 14.039062 22.570312 11.800781 24.617188 8.722656 C 24.6875 8.609375 24.804688 8.535156 24.933594 8.507812 C 25.0625 8.484375 25.199219 8.507812 25.3125 8.585938 C 25.429688 8.664062 27.832031 10.304688 27.726562 12.59375 C 28.769531 12.273438 30.285156 12.296875 31.824219 13.621094 C 31.984375 13.757812 32.039062 13.972656 31.96875 14.167969 C 31.957031 14.203125 30.773438 17.351562 26.855469 17.039062 C 26.835938 17.09375 26.808594 17.15625 26.78125 17.21875 C 26.488281 17.042969 26.140625 16.96875 25.78125 17.015625 C 25.960938 16.609375 26.046875 16.359375 26.050781 16.34375 C 26.125 16.117188 26.351562 15.96875 26.59375 16.003906 C 29.324219 16.367188 30.5 14.835938 30.878906 14.144531 C 28.9375 12.710938 27.398438 13.84375 27.328125 13.898438 C 27.148438 14.03125 26.898438 14.03125 26.71875 13.898438 C 26.542969 13.757812 26.476562 13.523438 26.558594 13.3125 C 27.1875 11.738281 25.871094 10.34375 25.164062 9.734375 C 23.402344 12.78125 24.90625 14.660156 24.921875 14.679688 C 25.082031 14.875 25.074219 15.15625 24.902344 15.335938 C 23.789062 16.539062 22.109375 16.5 22.03125 16.5 L 21.507812 16.5 C 21.507812 16.5 21.503906 16.5 21.5 16.5 L 1.085938 16.5 C 0.949219 17.523438 0.773438 20.355469 2.503906 22.714844 C 4.070312 24.851562 6.804688 26.105469 10.628906 26.4375 C 11.136719 26.476562 11.628906 26.5 12.105469 26.5 C 14.953125 26.5 17.28125 25.757812 19.15625 24.671875 C 19.230469 24.816406 19.324219 24.945312 19.4375 25.0625 L 19.824219 25.445312 C 17.789062 26.65625 15.246094 27.5 12.117188 27.5 C 11.609375 27.5 11.085938 27.476562 10.542969 27.429688 C 6.414062 27.078125 3.4375 25.683594 1.6875 23.296875 C -0.71875 20 0.132812 16.054688 0.171875 15.890625 C 0.226562 15.664062 0.429688 15.5 0.660156 15.5 L 1 15.5 L 1 12 C 1 11.726562 1.226562 11.5 1.5 11.5 L 5 11.5 L 5 8 C 5 7.726562 5.226562 7.5 5.5 7.5 L 13 7.5 L 13 4 C 13 3.726562 13.226562 3.5 13.5 3.5 Z M 14 7.5 L 17 7.5 L 17 4.5 L 14 4.5 Z M 6 11.5 L 9 11.5 L 9 10 C 9 9.726562 9.226562 9.5 9.5 9.5 C 9.773438 9.5 10 9.726562 10 10 L 10 11.5 L 13 11.5 L 13 8.5 L 6 8.5 Z M 14 11.5 L 15.5 11.5 C 15.773438 11.5 16 11.726562 16 12 C 16 12.273438 15.773438 12.5 15.5 12.5 L 14 12.5 L 14 15.5 L 17 15.5 L 17 8.5 L 14 8.5 Z M 2 15.5 L 5 15.5 L 5 12.5 L 2 12.5 Z M 6 15.5 L 9 15.5 L 9 12.5 L 6 12.5 Z M 10 15.5 L 13 15.5 L 13 12.5 L 10 12.5 Z M 18 15.5 L 21 15.5 L 21 12.5 L 18 12.5 Z M 7.5 20.25 C 7.5 20.9375 6.9375 21.5 6.25 21.5 C 5.5625 21.5 5 20.9375 5 20.25 C 5 19.5625 5.5625 19 6.25 19 C 6.9375 19 7.5 19.5625 7.5 20.25 Z M 21.507812 19.375 L 22.273438 20.015625 C 22.289062 20.03125 22.304688 20.046875 22.316406 20.0625 L 21.609375 20.769531 L 20.859375 20.132812 C 20.648438 19.957031 20.625 19.640625 20.804688 19.429688 C 20.890625 19.324219 21.015625 19.265625 21.144531 19.257812 C 21.273438 19.242188 21.402344 19.28125 21.507812 19.375 Z M 19.84375 21.136719 L 20.46875 21.910156 L 19.765625 22.617188 C 19.742188 22.59375 19.71875 22.570312 19.695312 22.542969 L 19.066406 21.765625 C 18.890625 21.550781 18.921875 21.234375 19.140625 21.0625 C 19.246094 20.976562 19.375 20.941406 19.507812 20.953125 C 19.632812 20.96875 19.753906 21.03125 19.84375 21.136719 Z M 17.878906 22.542969 L 18.332031 23.433594 C 18.457031 23.679688 18.359375 23.980469 18.113281 24.109375 C 18.039062 24.140625 17.960938 24.160156 17.886719 24.160156 C 17.703125 24.160156 17.53125 24.0625 17.441406 23.886719 L 16.984375 22.996094 C 16.863281 22.75 16.960938 22.449219 17.203125 22.320312 C 17.265625 22.289062 17.332031 22.273438 17.398438 22.269531 C 17.59375 22.257812 17.785156 22.359375 17.878906 22.542969 Z M 15.664062 23.492188 L 15.914062 24.460938 C 15.984375 24.726562 15.820312 25 15.554688 25.070312 C 15.515625 25.082031 15.46875 25.085938 15.429688 25.085938 C 15.207031 25.085938 15.003906 24.9375 14.945312 24.710938 L 14.695312 23.742188 C 14.625 23.476562 14.789062 23.203125 15.054688 23.132812 C 15.121094 23.117188 15.1875 23.113281 15.253906 23.125 C 15.445312 23.152344 15.613281 23.289062 15.664062 23.492188 Z M 13.289062 23.949219 L 13.34375 24.945312 C 13.355469 25.226562 13.140625 25.460938 12.867188 25.472656 C 12.859375 25.472656 12.851562 25.476562 12.84375 25.476562 C 12.578125 25.476562 12.355469 25.265625 12.34375 25 L 12.292969 24 C 12.277344 23.726562 12.492188 23.492188 12.765625 23.476562 C 13.039062 23.460938 13.273438 23.671875 13.289062 23.949219 Z M 13.289062 23.949219 "/>
<path style=" stroke:none;fill-rule:nonzero;fill:rgb(20.392157%,59.607846%,85.882354%);fill-opacity:1;" d="M 26.351562 18.148438 L 31.851562 23.644531 C 31.945312 23.738281 32 23.867188 32 24 C 32 24.132812 31.945312 24.257812 31.851562 24.351562 L 29.851562 26.351562 C 29.65625 26.546875 29.34375 26.546875 29.148438 26.351562 L 28 25.203125 L 28 31.5 C 28 31.773438 27.773438 32 27.5 32 L 24.5 32 C 24.222656 32 24 31.773438 24 31.5 L 24 25.203125 L 22.851562 26.351562 C 22.65625 26.546875 22.339844 26.546875 22.144531 26.351562 L 20.148438 24.355469 C 19.953125 24.160156 19.953125 23.84375 20.148438 23.648438 L 25.644531 18.148438 C 25.742188 18.050781 25.871094 18 26 18 C 26.125 18 26.253906 18.050781 26.351562 18.148438 Z M 22.5 25.289062 L 24.144531 23.644531 C 24.289062 23.5 24.5 23.460938 24.6875 23.535156 C 24.875 23.613281 25 23.796875 25 24 L 25 31 L 27 31 L 27 24 C 27 23.796875 27.121094 23.613281 27.304688 23.535156 C 27.492188 23.460938 27.710938 23.5 27.851562 23.644531 L 29.5 25.289062 L 30.792969 24 L 26 19.210938 L 21.207031 24 Z M 22.5 25.289062 "/>
</g>
</svg>

<svg role="img" viewBox="0 0 32 32" xmlns="http://www.w3.org/2000/svg"><path d="M17.5 3.5c.273 0 .5.227.5.5v7.5h3.5c.273 0 .5.227.5.5v3.5h.047c.027 0 1.047.016 1.836-.586-.492-.875-1.313-3.113.734-6.191a.488.488 0 0 1 .317-.215.505.505 0 0 1 .378.078c.118.078 2.52 1.719 2.415 4.008 1.043-.32 2.558-.297 4.097 1.027.16.137.215.352.145.547-.012.035-1.196 3.184-5.114 2.871-.02.055-.046.117-.074.18a1.543 1.543 0 0 0-1-.203c.18-.407.266-.657.27-.672a.498.498 0 0 1 .543-.34c2.73.363 3.906-1.168 4.285-1.86-1.942-1.433-3.48-.3-3.55-.246a.516.516 0 0 1-.61 0 .51.51 0 0 1-.16-.585c.628-1.575-.688-2.97-1.395-3.579-1.762 3.047-.258 4.926-.242 4.946a.495.495 0 0 1-.02.656c-1.113 1.203-2.793 1.164-2.87 1.164H1.085c-.137 1.023-.313 3.855 1.418 6.215 1.566 2.137 4.3 3.39 8.125 3.723.508.039 1 .062 1.476.062 2.848 0 5.176-.742 7.051-1.828.074.144.168.273.282.39l.386.383c-2.035 1.211-4.578 2.055-7.707 2.055a18.23 18.23 0 0 1-1.574-.07c-4.129-.352-7.105-1.746-8.855-4.133C-.72 20 .133 16.055.172 15.89a.508.508 0 0 1 .488-.39H1V12c0-.273.227-.5.5-.5H5V8c0-.273.227-.5.5-.5H13V4c0-.273.227-.5.5-.5Zm-3.5 4h3v-3h-3Zm-8 4h3V10c0-.273.227-.5.5-.5s.5.227.5.5v1.5h3v-3H6Zm8 0h1.5c.273 0 .5.227.5.5s-.227.5-.5.5H14v3h3v-7h-3Zm-12 4h3v-3H2Zm4 0h3v-3H6Zm4 0h3v-3h-3Zm8 0h3v-3h-3ZM7.5 20.25c0 .688-.562 1.25-1.25 1.25-.687 0-1.25-.562-1.25-1.25 0-.687.563-1.25 1.25-1.25.688 0 1.25.563 1.25 1.25m14.008-.875.765.64a.448.448 0 0 1 .043.047l-.707.708-.75-.637a.496.496 0 0 1-.054-.703.474.474 0 0 1 .34-.172.457.457 0 0 1 .363.117m-1.664 1.762.625.773-.703.707a.996.996 0 0 1-.07-.074l-.63-.777a.502.502 0 0 1 .441-.812.528.528 0 0 1 .337.183m-1.965 1.406.453.89a.505.505 0 0 1-.219.676.595.595 0 0 1-.226.051.495.495 0 0 1-.446-.273l-.457-.89a.512.512 0 0 1 .22-.677.504.504 0 0 1 .676.223m-2.215.95.25.968a.502.502 0 0 1-.484.625.5.5 0 0 1-.485-.375l-.25-.969a.502.502 0 0 1 .36-.61.49.49 0 0 1 .199-.007.49.49 0 0 1 .41.367m-2.375.456.055.996a.503.503 0 0 1-.477.528c-.008 0-.015.004-.023.004a.502.502 0 0 1-.5-.477l-.051-1a.498.498 0 1 1 .996-.05m13.062-5.801 5.5 5.497a.497.497 0 0 1 0 .707l-2 2a.495.495 0 0 1-.704 0L28 25.203V31.5c0 .273-.227.5-.5.5h-3a.501.501 0 0 1-.5-.5v-6.297l-1.148 1.149a.5.5 0 0 1-.707 0l-1.997-1.997a.5.5 0 0 1 0-.707l5.497-5.5A.503.503 0 0 1 26 18a.5.5 0 0 1 .352.148M22.5 25.29l1.645-1.644A.5.5 0 0 1 25 24v7h2v-7c0-.203.121-.387.305-.465a.505.505 0 0 1 .547.11l1.648 1.644L30.793 24 26 19.21 21.207 24Zm0 0" style="stroke:none;fill-rule:nonzero;fill:rgb(20.392157%,59.607846%,85.882354%);fill-opacity:1"/></svg>
